X:1
T: Open Road, The
C: R-46
C: Jim Guinness 1981
M: C|
Z:
R: reel
P: A Mixolydian
K: AMix
"A"E2A2 "G"BcdB| "A"cecB- "F#m"B2A2| "G"G4 "D"D4| "E7"E8|
"A"E2A2 "G"BcdB| "A"cecB- "D"B2A2| "G"G3E "E7"G^G2A-| "A"A8 :|
|:\
"A"ABcd e2c2| "D"d2f2 "G"gagf| "A"eaag "C"aged| "D"B2A2 "E7"G2E2|
"A"ABcd e2c2| "D"d2f2 "G"gagf| "C"eaag "D"aged| "E7"B2^G2 "A"A4 :|
%
